!!!COM: Felipe, Julian
!!!CDT: 1861-1944
!!!OTL: National Anthem, The Phillipines
!!!ENC: Davis, Matthew J.
!!Vocal Line Only
**kern
*clefG2
*k[f#]
*X:
*M2/4
=1-
4g
8.f#
16a
=2
4g
4d
=3
6a
6b
6cc
8.b
16a
=4
4b
8g
8r
=5
4g
8.f#
16a
=6
4g
4d
=7
6a
6b
6cc
8.b
16a
=8
4.g
8r
=9
4g
8.f#
16a
=10
4g
4d
=11
6a
6b
6cc
8.b
16a
=12
4b
8g
8r
=13
4g
8.f
16a
=14
4g
4d
=15
6a
6b
6cc
8.b
16a
=16
4g
6g
6f#
6g
=17
8.a
16a
8.d
16d
=18
8.a
16a
8.d
16d
=19
8.b
16cc
8.dd
16ee
=20
4dd
6g
6f#
6g
=21
8.a
16a
8.d
16d
=22
8.a
16a
8.d
16d
=23
6b
6cc
6b
6a
6b
6a
=24
4g
6g
6f#
6g
=25
8.a
16a
8.d
16d
=26
8.a
16a
8.d
16d
=27
8.b
16cc
8.dd
16ee
=28
4dd
6g
6f#
6g
=29
8.a
16a
8.d
16d
=30
8.a
16a
8.d
16d
=31
6b
6cc
6b
6a
6b
6a
=32
4g
==33
*k[]
6g
6e
6g
=34
4cc
4cc
=35
4dd
8.dd
16dd
=36
8.ee
16dd
8.cc
16dd
=37
4ee
6ff
6ee
6dd
=38
4ee
4cc
=39
4dd
8.b
16b
=40
[2cc
=41
4cc]
6g
6e
6g
=42
4cc
4cc
=43
4dd
8dd
8dd
=44
8.ee
16dd
8.cc
16dd
=45
4ee
6ff
6ee
6dd
=46
4ee
4cc
=47
4dd
8.b
16b
=48
[2cc
=49
4cc]
4r
==|!
*-
